static/img/icons/mongodb.svg

<svg fill="none" height="26" viewBox="0 0 26 26" width="26" xmlns="http://www.w3.org/2000/svg"><g stroke="#fff" stroke-linecap="round" stroke-linejoin="round" stroke-width="1.5"><path d="m19.6 1c1.7552.19429 2.9366.63338 3.8184 1.62575 1.5816 1.77994 1.5816 4.6447 1.5816 10.37425 0 5.7296 0 8.5943-1.5816 10.3743-.8818.9924-2.0632 1.4314-3.8184 1.6257m-13.19999 0c-1.75516-.1943-2.93659-.6333-3.81838-1.6257-1.58163-1.78-1.58163-4.6447-1.58163-10.3743 0-5.72955 0-8.59431 1.58163-10.37425.88179-.99237 2.06322-1.43146 3.81838-1.62575"/><path d="m13 18.7344c-3.22167-.0001-5.83334-2.5416-5.83334-5.6766 0-4.25746 5.83334-9.22449 5.83334-9.22449s5.8333 4.967 5.8333 9.22449c0 2.102-1.174 3.9371-2.9188 4.9183m-2.9145 4.1905v-12.97246"/></g></svg>

<svg width="26" height="26" viewBox="0 0 26 26" fill="none" xmlns="http://www.w3.org/2000/svg">
<path d="M19.6 1C21.3552 1.19429 22.5366 1.63338 23.4184 2.62575C25 4.40569 25 7.27045 25 13C25 18.7296 25 21.5943 23.4184 23.3743C22.5366 24.3667 21.3552 24.8057 19.6 25M6.40001 25C4.64485 24.8057 3.46342 24.3667 2.58163 23.3743C1 21.5943 1 18.7296 1 13C1 7.27045 1 4.40569 2.58163 2.62575C3.46342 1.63338 4.64485 1.19429 6.40001 1" stroke="white" stroke-width="1.5" stroke-linecap="round" stroke-linejoin="round"/>
<path d="M13 18.7344C9.77833 18.7343 7.16666 16.1928 7.16666 13.0578C7.16666 8.80034 13 3.83331 13 3.83331C13 3.83331 18.8333 8.80031 18.8333 13.0578C18.8333 15.1598 17.6593 16.9949 15.9145 17.9761M13 22.1666V9.19414" stroke="white" stroke-width="1.5" stroke-linecap="round" stroke-linejoin="round"/>
</svg>
